X: 42188
T: Watermoon
R: reel
M: 4/4
K: Adorian
|:A2GE cde(d|d)Bed cBAG|A2GE cde(g|g)eag edBG|
A2GE cde(d|d)Bed cBAB|cBAc BA(B2|1 B2)z1B cBAG:|2 B2)z1e dege||
|:a2ge age(a|a)abc' bage|a2ge age(d|d)ded cdeg|
a2ge age(a|a)abc' bage|aged edB(c|1 c2)z1e dege:|2 c2)z1B cBAG||

